X:1
T:Morris’ Chant, 86.886
T:Morris’ Chant, 86.886
T:William Batchelder Bradbury, 1858
T:Public Domain Courtesy of the Cyber Hymnal™
C:William Batchelder Bradbury, 1858
Z:Public Domain
Z:Courtesy of the Cyber Hymnal™
%%score ( 1 2 ) ( 3 4 )
L:1/8
M:3/2
K:F
V:1 treble 
V:2 treble 
V:3 bass 
V:4 bass 
V:1
 [FA]2 [FA]2 [FA]2 | [FA]6 [^FA]2 [FA]2 [FA]2 | [GB]8 [GB]4 | [FA]6 [CF]2 D2 [DG]2 | %4
 (!fermata!F4 !fermata!E2) [EG]2 [EG]2 [EG]2 | [Ec]6 [GB]2 [FA]2 [EG]2 | [FA]6 [^FA]2 [FA]2 [FA]2 | %7
 [^Fd]6 [Ac]2 [GB]2 [FA]2 | ([Ac]4 [GB]4) [EG]4 | [FA]2 [DG]2 [CF]4 [CE]4 | [CF]8 |] %11
V:2
 x6 | x12 | x12 | x8 D2 x2 | C6 x6 | x12 | x12 | x12 | x12 | x12 | x8 |] %11
V:3
 [F,C]2 [F,C]2 [F,C]2 | [F,C]6 [D,D]2 [D,D]2 [D,D]2 | [G,D]8 [C,C]4 | %3
 [F,C]6 [A,,C]2 [B,,B,]2 [G,,B,]2 | (A,4 G,2) [C,C]2 [C,C]2 [C,C]2 | [C,C]6 [C,C]2 [C,C]2 [C,C]2 | %6
 [F,C]6 [D,D]2 [D,D]2 [D,D]2 | [D,D]6 [D,D]2 [D,D]2 [D,D]2 | [G,D]8 [C,C]4 | %9
 [F,C]2 [B,,B,]2 [C,A,]4 [C,G,]4 | [F,A,]8 |] %11
V:4
 x6 | x12 | x12 | x12 | C,6 x6 | x12 | x12 | x12 | x12 | x12 | x8 |] %11

